assets/Ear/Dark/Flat/ear_flat_dark.svg

<svg width="32" height="32" viewBox="0 0 32 32" fill="none" xmlns="http://www.w3.org/2000/svg">
<path d="M7.125 23.1562V11.0938C7.125 6.25 10.875 2.03125 16.4688 2.03125C23.6094 2.03125 26 8.1875 26 11.0938C26 14.4219 24.4358 16.5279 22.9062 19.1094L20.2197 23.9629C20.0102 24.3469 19.8019 24.7245 19.5938 25.0938C18.6719 26.625 16.9844 30.0312 13.0625 30.0312C9.9375 30.0312 7.125 27.1406 7.125 23.1562Z" fill="#573739"/>
<path d="M10.9922 9.84375C10.9922 9.83077 10.9927 9.81791 10.9937 9.80518C11.0531 7.89723 12.9261 5.03125 16.9844 5.03125C21.1094 5.03125 22.9844 10.0625 22.9844 12C22.9844 13.3438 21 13.3281 21 12C21 10.3125 19.4531 7.01562 16.6562 7.01562C14.5173 7.01562 12.0981 8.37514 11.9919 9.82689L11.9922 9.84375L11.9922 12.1347C13.2281 13.2899 19.4856 19.1388 19.7812 19.4062C20.1094 19.7031 19.8906 20.0469 19.5625 19.9062C19.2673 19.7798 13.207 15.7845 11.9922 14.983L11.9922 17.9956C12.0055 17.9952 12.0189 17.9948 12.0326 17.9945C12.4554 17.9828 13.0468 17.9665 13.6753 18.0963C14.4898 18.2645 15.3836 18.6725 16.2541 19.5942C16.4437 19.7949 16.4347 20.1114 16.2339 20.301C16.0332 20.4906 15.7167 20.4816 15.5271 20.2808C14.8039 19.515 14.0962 19.2043 13.4731 19.0756C12.9705 18.9718 12.5308 18.9831 12.1156 18.9937C12.0743 18.9948 12.0331 18.9958 11.9922 18.9968L11.9922 25.2031C11.9922 25.2796 12.0107 25.3293 12.041 25.3712C12.0639 25.4028 12.1035 25.4434 12.1722 25.4873C14.0148 25.6687 14.7653 24.2089 15.3895 22.995C15.8153 22.1668 16.1822 21.4531 16.7969 21.4531C17.9844 21.4531 18.1806 22.4544 17.9844 23.8281C17.6406 26.2344 15.125 27 13.9688 27C12.9005 27 11.2654 26.6432 11.0227 25.4922C11.0021 25.3977 10.9922 25.301 10.9922 25.2031V9.84375Z" fill="#341A1C"/>
</svg>

<svg xmlns="http://www.w3.org/2000/svg" width="32" height="32" fill="none"><path fill="#573739" d="M7.125 23.156V11.094c0-4.844 3.75-9.063 9.344-9.063 7.14 0 9.531 6.156 9.531 9.063 0 3.328-1.564 5.434-3.094 8.015l-2.686 4.854c-.21.384-.418.761-.626 1.13-.922 1.532-2.61 4.938-6.532 4.938-3.124 0-5.937-2.89-5.937-6.875Z"/><path fill="#341A1C" d="M10.992 9.844c0-.013 0-.026.002-.039.06-1.908 1.932-4.774 5.99-4.774 4.125 0 6 5.032 6 6.969 0 1.344-1.984 1.328-1.984 0 0-1.688-1.547-4.984-4.344-4.984-2.139 0-4.558 1.36-4.664 2.81v2.308a5148.53 5148.53 0 0 0 7.79 7.272c.327.297.109.64-.22.5-.295-.126-6.355-4.121-7.57-4.923v3.013l.04-.002c.423-.011 1.015-.027 1.643.102.815.169 1.709.576 2.58 1.498a.5.5 0 1 1-.728.687c-.723-.766-1.43-1.077-2.054-1.205-.503-.104-.942-.093-1.357-.082-.042 0-.083.002-.124.003v6.206c0 .077.019.126.049.168a.472.472 0 0 0 .131.116c1.843.182 2.593-1.278 3.217-2.492.426-.828.793-1.542 1.408-1.542 1.187 0 1.384 1.001 1.187 2.375C17.641 26.234 15.125 27 13.97 27c-1.069 0-2.704-.357-2.946-1.508a1.355 1.355 0 0 1-.03-.289V9.843Z"/></svg>
